fs/crop_interim_20_regular.svg

<svg viewBox="0 0 20 20" fill="none" xmlns="http://www.w3.org/2000/svg" height="1em" width="1em">
  <path d="M12 5C12.5523 5 13 4.55228 13 4C13 3.44772 12.5523 3 12 3C11.4477 3 11 3.44772 11 4C11 4.55228 11.4477 5 12 5ZM10 4H7C7 5.02787 6.22461 5.87463 5.22686 5.98728L4.7642 10.1512C5.48963 10.4514 6 11.1661 6 12H11C11 11.166 11.5105 10.4512 12.2361 10.1511L11.7734 5.98731C10.7755 5.87479 10 5.02797 10 4ZM11.2676 13H5.73244C5.38663 13.5978 4.74028 14 4 14C2.89543 14 2 13.1046 2 12C2 10.972 2.77554 10.1252 3.77343 10.0127L4.23607 5.84892C3.5105 5.5488 3 4.83402 3 4C3 2.89543 3.89543 2 5 2C5.74028 2 6.38663 2.4022 6.73244 3H10.2676C10.6134 2.4022 11.2597 2 12 2C13.1046 2 14 2.89543 14 4C14 4.83391 13.4896 5.54862 12.7642 5.84881L13.2269 10.0127C14.2246 10.1254 15 10.9721 15 12C15 13.1046 14.1046 14 13 14C12.2597 14 11.6134 13.5978 11.2676 13ZM3 12C3 12.5523 3.44772 13 4 13C4.55228 13 5 12.5523 5 12C5 11.4477 4.55228 11 4 11C3.44772 11 3 11.4477 3 12ZM5 3C4.44772 3 4 3.44772 4 4C4 4.55228 4.44772 5 5 5C5.55228 5 6 4.55228 6 4C6 3.44772 5.55228 3 5 3ZM12 12C12 12.5523 12.4477 13 13 13C13.5523 13 14 12.5523 14 12C14 11.4477 13.5523 11 13 11C12.4477 11 12 11.4477 12 12ZM13.9652 7.60395C15.9865 8.04581 17.4997 9.84626 17.4997 12.0001C17.4997 14.4854 15.485 16.5001 12.9997 16.5001C11.6673 16.5001 10.4698 15.9212 9.64536 15H10.5C10.7761 15 11 14.7761 11 14.5C11 14.2239 10.7761 14 10.5 14H8.5C8.22386 14 8 14.2239 8 14.5V16.5C8 16.7761 8.22386 17 8.5 17C8.77614 17 9 16.7761 9 16.5V15.7753C10.0024 16.8369 11.4234 17.5001 12.9997 17.5001C16.0373 17.5001 18.4997 15.0377 18.4997 12.0001C18.4997 9.25167 16.4837 6.97407 13.8498 6.56543L13.9652 7.60395Z" fill="#212121"/>
</svg>

<svg viewBox="0 0 20 20" fill="none" xmlns="http://www.w3.org/2000/svg" height="1em" width="1em">
  <path d="M12 5a1 1 0 1 0 0-2 1 1 0 0 0 0 2Zm-2-1H7a2 2 0 0 1-1.773 1.987l-.463 4.164A2 2 0 0 1 6 12h5a2 2 0 0 1 1.236-1.849l-.463-4.164A2 2 0 0 1 10 4Zm1.268 9H5.732a2 2 0 1 1-1.959-2.987l.463-4.164A2 2 0 1 1 6.732 3h3.536A2 2 0 0 1 14 4a2 2 0 0 1-1.236 1.849l.463 4.164A2 2 0 1 1 11.267 13ZM3 12a1 1 0 1 0 2 0 1 1 0 0 0-2 0Zm2-9a1 1 0 1 0 0 2 1 1 0 0 0 0-2Zm7 9a1 1 0 1 0 2 0 1 1 0 0 0-2 0Zm1.965-4.396A4.502 4.502 0 0 1 13 16.5 4.489 4.489 0 0 1 9.645 15h.855a.5.5 0 0 0 0-1h-2a.5.5 0 0 0-.5.5v2a.5.5 0 0 0 1 0v-.725a5.5 5.5 0 1 0 4.85-9.21l.115 1.039Z" fill="#212121"/>
</svg>
